app/dist/common/images/graham.svg

<svg height="18" viewBox="0 0 18 18" width="18" xmlns="http://www.w3.org/2000/svg"><path d="m0 0h18v18h-18z" fill="#f0f3fa"/><path d="m9 6.2v1.1l-4.54-.3 4.56-.8zm0 1.45v1.03l-6.09-.51 6.1-.52zm0 1.31v1.04l-7-.54 7-.51zm0 1.37v.89l-5.42-.44zm0 1.67v-.55l-4.13.21z" fill="#a55252"/><path d="m10.3 6c-.45 0-.8.46-.8 1.04v3.92c0 .57.35 1.04.8 1.04h3.9c.44 0 .8-.46.8-1.04v-2.56h-3v1.08h2v1.52h-3.52v-4h3.52v.66l1-.17v-.45c0-.58-.36-1.04-.8-1.04z" fill="#186799"/></svg>

<!-- by TradingView --><svg width="18" height="18" viewBox="0 0 18 18" xmlns="http://www.w3.org/2000/svg"><path fill="#F0F3FA" d="M0 0h18v18H0z"/><path d="M9 6.2v1.1L4.46 7l4.56-.8ZM9 7.65v1.03l-6.09-.51 6.1-.52ZM9 8.96V10l-7-.54 7-.51ZM9 10.33V11.22l-5.42-.44L9 10.33ZM9 12v-.55l-4.13.21L9 12Z" fill="#A55252"/><path d="M10.3 6c-.45 0-.8.46-.8 1.04v3.92c0 .57.35 1.04.8 1.04h3.9c.44 0 .8-.46.8-1.04V8.4h-3v1.08h2V11h-3.52V7H14v.66l1-.17v-.45c0-.58-.36-1.04-.8-1.04h-3.9Z" fill="#186799"/></svg>
